X:092
T:Polka Chinoise
M:2/4
L:1/8
K:G
gedB G2 GG | ABGE G2 GE | DGGE GGGA | BdBG Adef |
gedB G2 GG | ABGE G2 GA | Bddd edBG | A2 A2 G4 :||
K:D
A2AA d2dd | e2ee f2 d2 | A2AA g2 gg | fdfe d4 |
A2AA d2AA | e2AA f2 d2 | A2AA g2 gg | fdfe d4 | e4 f4 ||
